X:1
T:Title
%%score { ( 1 3 ) | 2 }
L:1/8
M:3/4
K:Eb
V:1 treble nm="Grand Piano"
V:3 treble 
V:2 bass 
V:1
 z2 z2[Q:1/4=100] E>F | G3 G FG | B>A G2 G[FA] | [GB]3 [EG] [DF][FA] | [EG]4 [FB][Fc] | %5
 [Fd]3 [FB] =Ac | c2 B2 GG | F3 B cF |[M:2/4] [B,DB]4 |[M:1/4] G>A |[M:3/4] [GB]4 z2 | %11
 [B,FA]2 [B,EG]2 e>d | [Ac]4 z2 | [B,DF]4 GA | [GB]4 z2 | [Ec]2 [Ee]2 [Ed][Ec] | Be G2 [DF]2 | %17
[M:2/4] E4 |] %18
V:2
 z2 z2 [E,G,]>[E,A,E] | [E,B,E]3 [B,E] [A,B,D][G,B,E] | [F,B,D]2 [E,B,E]2 [E,B,E][E,B,] | %3
 [E,E]3 [E,B,] [B,,B,][C,B,] | [E,B,]4 [D,B,][C,=A,] | [B,,B,]3 [C,B,] [F,CE][F,=A,E] | %6
 [F,=A,E]2 [G,B,D]2 [E,B,C][=E,B,_D] | [F,B,D]3 [F,B,D] [F,=A,E][F,CE] |[M:2/4] B,,4 | %9
[M:1/4][K:treble] E>F |[M:3/4][K:bass] E,E, E,E, B,,B,, | E,2 E,2[K:treble] G>B | %12
 A,A, A,[K:bass]G, F,E, | B,,4 EF | E,E, E,_D, C,[B,,G,] | [A,,A,]2 [A,,C]2 [A,,B,][C,A,] | %16
 [E,G,E][G,B,E] [B,E]2 [B,,A,]2 |[M:2/4] [E,G,]4 |] %18
V:3
 x6 | x6 | x6 | x6 | x6 | x6 | x6 | x6 |[M:2/4] x4 |[M:1/4] x2 | %10
[M:3/4] B,B, B,[B,EG] [B,FA][B,GB] | x6 | z C E[EB] [B,DA][B,EG] | x6 | B,B, B,[B,EG] [A,EA][EB] | %15
 x6 | x6 |[M:2/4] x4 |] %18

